public/svg/grok.svg

<svg xmlns="http://www.w3.org/2000/svg" viewBox="0 0 24 24" width="24" height="24" color="#000000" fill="none">
  <path d="M2.5 12C2.5 7.77027 2.5 5.6554 3.69797 4.25276C3.86808 4.05358 4.05358 3.86808 4.25276 3.69797C5.6554 2.5 7.77027 2.5 12 2.5C16.2297 2.5 18.3446 2.5 19.7472 3.69797C19.9464 3.86808 20.1319 4.05358 20.302 4.25276C21.5 5.6554 21.5 7.77027 21.5 12C21.5 16.2297 21.5 18.3446 20.302 19.7472C20.1319 19.9464 19.9464 20.1319 19.7472 20.302C18.3446 21.5 16.2297 21.5 12 21.5C7.77027 21.5 5.6554 21.5 4.25276 20.302C4.05358 20.1319 3.86808 19.9464 3.69797 19.7472C2.5 18.3446 2.5 16.2297 2.5 12Z" stroke="currentColor" stroke-width="1.5" />
  <path d="M8 17.5L16 7.5" stroke="currentColor" stroke-width="1.5" stroke-linecap="round" />
</svg>

<svg xmlns="http://www.w3.org/2000/svg" fill="none" viewBox="0 0 24 24"><path stroke="currentColor" stroke-width="1.5" d="M2.5 12c0-4.23 0-6.345 1.198-7.747.17-.2.356-.385.555-.555C5.655 2.5 7.77 2.5 12 2.5s6.345 0 7.747 1.198c.2.17.385.356.555.555C21.5 5.655 21.5 7.77 21.5 12s0 6.345-1.198 7.747c-.17.2-.356.385-.555.555C18.345 21.5 16.23 21.5 12 21.5s-6.345 0-7.747-1.198c-.2-.17-.385-.356-.555-.555C2.5 18.345 2.5 16.23 2.5 12Z"/><path stroke="currentColor" stroke-linecap="round" stroke-width="1.5" d="m8 17.5 8-10"/></svg>
